icons/lines/keyboard-open.svg

<svg xmlns="http://www.w3.org/2000/svg" width="24" height="24" viewBox="0 0 24 24" fill="none" stroke="currentColor" stroke-width="2" stroke-linecap="round" stroke-linejoin="round" >
  <path d="M7.26022 2H16.7302C17.3802 2 17.9602 2.02003 18.4802 2.09003C21.2502 2.40003 22.0002 3.70001 22.0002 7.26001V13.58C22.0002 17.14 21.2502 18.44 18.4802 18.75C17.9602 18.82 17.3902 18.84 16.7302 18.84H7.26022C6.61022 18.84 6.03022 18.82 5.51022 18.75C2.74022 18.44 1.99023 17.14 1.99023 13.58V7.26001C1.99023 3.70001 2.74022 2.40003 5.51022 2.09003C6.03022 2.02003 6.61022 2 7.26022 2Z"/>
  <path d="M13.5801 8.32007H17.2601"/>
  <path d="M6.74023 14.11H6.76022H17.2702"/>
  <path d="M7 22H17"/>
  <path d="M7.1947 8.30005H7.20368"/>
  <path d="M10.4945 8.30005H10.5035"/>
  </svg>

<svg xmlns="http://www.w3.org/2000/svg" width="24" height="24" viewBox="0 0 24 24" fill="none" stroke="currentColor" stroke-width="2" stroke-linecap="round" stroke-linejoin="round">
  <path d="M10.495 8.3h.01" />
  <path d="M13.58 8.32h3.68" />
  <path d="M16.73 2c.65 0 1.23.02 1.75.09C21.25 2.4 22 3.7 22 7.26v6.32c0 3.56-.75 4.86-3.52 5.17-.52.07-1.09.09-1.75.09H7.26c-.65 0-1.23-.02-1.75-.09-2.77-.31-3.52-1.61-3.52-5.17V7.26c0-3.56.75-4.86 3.52-5.17.52-.07 1.1-.09 1.75-.09z" />
  <path d="M6.74 14.11h10.53" />
  <path d="M7 22h10" />
  <path d="M7.195 8.3h.01" />
</svg>
